icons/linear-ele-drink-goblet-square.svg

<svg xmlns="http://www.w3.org/2000/svg" width="32px" height="32px" viewBox="0 0 32 32" version="1.1">
    <title>linear-ele-drink-goblet-square</title>
    <g id="linear-ele-drink-goblet-square" stroke-width="1" fill-rule="evenodd">
        <path d="M12,30 C11.4477153,30 11,29.5522847 11,29 C11,28.4477153 11.4477153,28 12,28 L15,28 L14.9998991,19.9506147 C9.94662476,19.4488436 6,15.1853136 6,10 L6,3 C6,2.44771525 6.44771525,2 7,2 L25,2 C25.5522847,2 26,2.44771525 26,3 L26,10 C26,15.1849719 22.0538953,19.4482817 17.0010997,19.9505155 L17,28 L20,28 C20.5522847,28 21,28.4477153 21,29 C21,29.5522847 20.5522847,30 20,30 L12,30 Z M24,4 L8,4 L8,10 C8,14.3349143 11.4478378,17.8645429 15.7508207,17.9961932 L16,18 C20.418278,18 24,14.418278 24,10 L24,4 Z" id="&#24418;&#29366;" fill-rule="nonzero" />
    </g>
</svg>

<svg xmlns="http://www.w3.org/2000/svg" viewBox="0 0 32 32"><path fill="currentColor" d="M12 30a1 1 0 0 1 0-2h3v-8.05C9.947 19.45 6 15.186 6 10V3a1 1 0 0 1 1-1h18a1 1 0 0 1 1 1v7c0 5.185-3.946 9.448-8.999 9.95L17 28h3a1 1 0 0 1 0 2zM24 4H8v6a8 8 0 0 0 7.75 7.996L16 18a8 8 0 0 0 8-8z"/></svg>
